X:42
T:Lift Every Voice and Sing/We Shall Overcome
L:1/8
M:6/8
V:S clef=treble
%%MIDI program 1 19 % Church Organ
%%MIDI program 2 41 % Viola
K:G
[V:S]
z3 FGA | B3 B3 | B3 Bcd | B3 A3 | G3
 GAB | c3 B3 | G3 A3 |  G3-G2 G | F3
 FGA | B3 B3 | e3 edB | c3 (B2 A) | G3
 GA^A | B3 BAG | A3-A2 G | G6 |
 G3 D3 | E3 EDB, | EDB, EDB, |  D3 D3 |
 G3 D3 | _E3 EDC | _EDC EDC | B6 | c3
 FGA | B3 B3 |  e3 edB | c3 (B2 A) | G3
 GA^A | B3 BAG | A3-A2  G | G6 |]
[V:A]
z6 | G3 G3| A3 A3|(G6|E3)-
E3 | G3 G3| A3 A3|(G3E3|D3
F3)| G3 G3| A3 B3| c6|d3-
d3 | (B6| A2B A2G| G6)|
(A3B3)| c6| B3 A3|G6-|
G6|A6| G3 =F3|E6-|E3
F3| G6|G6| C3 F3| E3-
E3|D6| (C6|D6)|]

